material/.icons/material/battery-bluetooth-variant.svg

<svg xmlns="http://www.w3.org/2000/svg" viewBox="0 0 24 24"><path d="M9 2v2H7.33A1.33 1.33 0 006 5.33v15.34C6 21.4 6.6 22 7.33 22h9.34A1.33 1.33 0 0018 20.67V5.33C18 4.6 17.4 4 16.67 4H15V2H9m2.83 6h.5l2.85 2.85L13.04 13l2.13 2.14L12.33 18h-.5v-3.79L9.54 16.5l-.71-.71L11.62 13l-2.79-2.79.71-.71 2.29 2.29V8m1 1.91v1.88l.94-.94-.94-.94m0 4.3v1.87l.94-.94-.94-.93z"/></svg>

<?xml version="1.0" encoding="UTF-8"?><!DOCTYPE svg PUBLIC "-//W3C//DTD SVG 1.1//EN" "http://www.w3.org/Graphics/SVG/1.1/DTD/svg11.dtd"><svg xmlns="http://www.w3.org/2000/svg" xmlns:xlink="http://www.w3.org/1999/xlink" version="1.1" id="mdi-battery-bluetooth-variant" width="24" height="24" viewBox="0 0 24 24"><path d="M9,2V4H7.33A1.33,1.33 0 0,0 6,5.33V20.67C6,21.4 6.6,22 7.33,22H16.67A1.33,1.33 0 0,0 18,20.67V5.33C18,4.6 17.4,4 16.67,4H15V2H9M11.83,8H12.33L15.18,10.85L13.04,13L15.17,15.14L12.33,18H11.83V14.21L9.54,16.5L8.83,15.79L11.62,13L8.83,10.21L9.54,9.5L11.83,11.79V8M12.83,9.91V11.79L13.77,10.85L12.83,9.91M12.83,14.21V16.08L13.77,15.14L12.83,14.21Z" /></svg>
